X:1
T:Ouvrture
T:Gigue
T:Siebente Suite in g moll - HWV 432
T:G. F. Handel (1685-1759) 
%%score { ( 1 3 ) | ( 2 4 ) }
L:1/8
Q:1/4=120
M:12/8
K:Bb
V:1 treble nm="Piano" snm="Pno."
V:3 treble 
V:2 bass 
V:4 bass 
V:1
"^Allegro" d | BAG Bdg T^f3 z gd | e3 z fe d3 z ed | c3 z dc BAG d2 D | g3 z ba Tb3- bfa | %5
 gdf eGB AGF Bdf | Aef Bdf Fcf Ace | dcB FBA BFD[I:staff +1] B,F,D, |[I:staff -1] x3 CEA B3 z z :: %9
 B | dcB dcB f2 c aga | T^f2 d cdA BAG z ba | ga=f =efg ^cde Aag | f=ed de^c dAF D3 | %14
 =Bcd GAB Mc3- cde | ABc FGA MB3- Bba | g3 z ag ^f3 z g=f | edc BAG ^FAd GBd | ^Fcd GBd Ace- edc | %19
 BAG DG^F GDB, x3 | x3 A,C^F G3 z z :| %21
V:2
 z | G,,2 G, F,2 E, D,DC B,2 G, | C2 E, F,2 A, z z D, G,3 | A,,2 C, D,2 D,, G,,2 G, =F,E,D, | %4
 z z G, A,3 G,F,E, z z F, | z z D C3- C3 B,3 | A,3 B,3 C3 C3 | B,2 E, F,2 F,, B,,3 x x2 | %8
 B,,D,F, x3 [B,,,B,,]3 z z :: z | z DF z DF z CF z CF | D,^F,A, DD,F, G,2 G,, G,2 A, | %12
 B,2 A, G,A,B, A,2 G, F,2 =E, | D,2 G, A,2 A,, D,3 z z D, | G,2 F, _E,2 D, E,F,G, C,2 C | %15
 F,2 E, D,2 C, D,E,F, B,,2 D, | z z G, A,3 D,2 ^F, G,2 B,, | z z E, ^F,2 G, A,2 z D2 z | %18
 C2 z B,2 z A,2 z ^F,A,D | G,2 C, D,2 D,, G,,3 G,D,B,, | G,,B,,D, x3 [G,,,G,,]3 z z :| %21
V:3
 x | x6 A3 x3 | z cB TA3 z B/A/G/^F/ G3 | z AG ^F3 x6 | z ed c3 d3 x3 | x12 | x12 | x12 | %8
 x6 [DF]3 x2 :: x | x12 | x12 | x12 | x9 z =ef | x12 | x12 | z ed c3 z dc B3 | x12 | x12 | x12 | %20
 x6 [B,D]3 x2 :| %21
V:4
 x | x12 | x6 B,,3 z z B,, | x12 | E,3 z z C, x3 D,3 | E,3 z z E, F,3 D,3 | C,3 B,,3 A,3 F,3 | %7
 x12 | x11 :: x | B,3 B,3 B,3 B,3 | x12 | x12 | x12 | x12 | x12 | E,3 z z C, x6 | %17
 C,3 D,2 E, D,2 z B,2 z | A,2 z G,2 z ^F,2 z x3 | x12 | x11 :| %21

